src/assets/icons/settings.svg

<?xml version="1.0" standalone="no"?><!DOCTYPE svg PUBLIC "-//W3C//DTD SVG 1.1//EN" "http://www.w3.org/Graphics/SVG/1.1/DTD/svg11.dtd"><svg t="1536889931011" class="icon" style="" viewBox="0 0 1024 1024" version="1.1" xmlns="http://www.w3.org/2000/svg" p-id="1316" xmlns:xlink="http://www.w3.org/1999/xlink" width="128" height="128"><defs><style type="text/css"></style></defs><path d="M215.67041293 547.55070917a127.37604804 127.37604804 0 0 0 32.54462485 55.00945706C272.39750275 626.73509759 304.56545419 640.06935346 338.76744464 640.06935346c34.20199045 0 66.3699419-13.31918948 90.55240687-37.51672084A127.43631601 127.43631601 0 0 0 461.24673188 549.66761695H896.24482446c20.76979943 0 37.66739035-16.86745734 37.66739118-37.66739118 0-20.76226585-16.86745734-37.66739035-37.66739118-37.66739035H461.23919827a127.44384878 127.44384878 0 0 0-31.91181317-52.88501651A127.23291211 127.23291211 0 0 0 338.76744464 383.93109808c-34.20199045 0-66.3699419 13.31918948-90.55240686 37.51672083a127.37604804 127.37604804 0 0 0-32.54462485 55.00945707A37.47905364 37.47905364 0 0 0 203.20250623 474.33283542H127.79239035a37.67492395 37.67492395 0 0 0 0 75.33478153h75.41011588c4.36941706 0 8.5655646-0.74581403 12.4679067-2.11690778z m592.73405695 222.70467974a127.38358163 127.38358163 0 0 0-32.54462486-55.00945705A127.23291211 127.23291211 0 0 0 685.30743818 677.73674463c-34.20199045 0-66.3699419 13.31918948-90.55240688 37.51672082A127.43631601 127.43631601 0 0 0 562.82815093 768.13848196H127.83005835c-20.76979943 0-37.66739035 16.86745734-37.66739118 37.66739036 0 20.76226585 16.86745734 37.66739035 37.66739118 37.66739035h435.00562619a127.43631601 127.43631601 0 0 0 31.91181317 52.8850165C618.93749546 920.56334412 651.1054469 933.875 685.30743818 933.875c34.20199045 0 66.3699419-13.31918948 90.55240685-37.51672083a127.37604804 127.37604804 0 0 0 32.54462485-55.00945705 37.47905364 37.47905364 0 0 0 12.46790671 2.12444055h75.41011587a37.67492395 37.67492395 0 0 0 0-75.33478071h-75.41011587c-4.36941706 0-8.5655646 0.74581403-12.46790671 2.11690695z m0-587.61129226a127.38358163 127.38358163 0 0 0-32.54462486-55.00945706A127.23291211 127.23291211 0 0 0 685.30743818 90.12545236c-34.20199045 0-66.3699419 13.31918948-90.55240688 37.51672083A127.43631601 127.43631601 0 0 0 562.82815093 180.52718969H127.83005835c-20.76979943 0-37.66739035 16.86745734-37.66739118 37.66739036 0 20.76226585 16.86745734 37.66739035 37.66739118 37.66739035h435.00562619a127.43631601 127.43631601 0 0 0 31.91181317 52.88501651C618.93749546 332.95205186 651.1054469 346.26370773 685.30743818 346.26370773c34.20199045 0 66.3699419-13.31918948 90.55240685-37.51672082a127.37604804 127.37604804 0 0 0 32.54462485-55.00945706 37.47905364 37.47905364 0 0 0 12.46790671 2.12444055h75.41011587a37.67492395 37.67492395 0 0 0 0-75.33478071h-75.41011587c-4.36941706 0-8.5655646 0.74581403-12.46790671 2.11690696zM376.0581616 549.29094272A52.38780715 52.38780715 0 0 1 338.76744464 564.73457276a52.38780715 52.38780715 0 0 1-37.29071612-15.44363004A52.38780715 52.38780715 0 0 1 286.03309849 512.00022577c0-14.08760431 5.4843717-27.33145862 15.44363003-37.29071613A52.38780715 52.38780715 0 0 1 338.76744464 459.26587961c14.08760431 0 27.33145862 5.4843717 37.29071696 15.44363003A52.38780715 52.38780715 0 0 1 391.50179162 512.00022577c0 14.08760431-5.4843717 27.33145862-15.44363002 37.29071695z m346.5399927 293.80564572A52.38780715 52.38780715 0 0 1 685.30743818 858.5402193a52.38780715 52.38780715 0 0 1-37.29071696-15.44363087A52.38780715 52.38780715 0 0 1 632.57309119 805.80587232c0-14.08760431 5.4843717-27.33145862 15.44363003-37.29071695A52.38780715 52.38780715 0 0 1 685.30743818 753.07152534c14.08760431 0 27.33145862 5.4843717 37.29071612 15.44363002A52.38780715 52.38780715 0 0 1 738.04178433 805.80587232c0 14.08760431-5.4843717 27.33145862-15.44363003 37.29071611z m0-587.61129226A52.38780715 52.38780715 0 0 1 685.30743818 270.92892621a52.38780715 52.38780715 0 0 1-37.29071696-15.44363003A52.38780715 52.38780715 0 0 1 632.57309119 218.19458005c0-14.08760431 5.4843717-27.33145862 15.44363003-37.29071695A52.38780715 52.38780715 0 0 1 685.30743818 165.46023306c14.08760431 0 27.33145862 5.4843717 37.29071612 15.44363003A52.38780715 52.38780715 0 0 1 738.04178433 218.19458005c0 14.08760431-5.4843717 27.33145862-15.44363003 37.29071612z" p-id="1317"></path></svg>

<svg class="icon" viewBox="0 0 1024 1024" xmlns="http://www.w3.org/2000/svg" width="128" height="128"><defs><style/></defs><path d="M215.67 547.55a127.376 127.376 0 0 0 32.545 55.01c24.183 24.175 56.35 37.51 90.552 37.51 34.202 0 66.37-13.32 90.553-37.517a127.436 127.436 0 0 0 31.927-52.885h434.998c20.77 0 37.667-16.868 37.667-37.668 0-20.762-16.867-37.667-37.667-37.667H461.239a127.444 127.444 0 0 0-31.912-52.885 127.233 127.233 0 0 0-90.56-37.517c-34.202 0-66.37 13.32-90.552 37.517a127.376 127.376 0 0 0-32.545 55.01 37.48 37.48 0 0 0-12.467-2.125h-75.41a37.675 37.675 0 0 0 0 75.335h75.41a37.54 37.54 0 0 0 12.467-2.117zm592.734 222.705a127.384 127.384 0 0 0-32.544-55.01 127.233 127.233 0 0 0-90.553-37.508c-34.202 0-66.37 13.319-90.552 37.516a127.436 127.436 0 0 0-31.927 52.885H127.83c-20.77 0-37.667 16.868-37.667 37.668 0 20.762 16.867 37.667 37.667 37.667h435.006a127.436 127.436 0 0 0 31.911 52.885c24.19 24.205 56.358 37.517 90.56 37.517 34.202 0 66.37-13.32 90.553-37.517a127.376 127.376 0 0 0 32.544-55.01 37.48 37.48 0 0 0 12.468 2.125h75.41a37.675 37.675 0 0 0 0-75.335h-75.41a37.55 37.55 0 0 0-12.468 2.117zm0-587.61a127.384 127.384 0 0 0-32.544-55.01 127.233 127.233 0 0 0-90.553-37.51c-34.202 0-66.37 13.32-90.552 37.517a127.436 127.436 0 0 0-31.927 52.885H127.83c-20.77 0-37.667 16.868-37.667 37.668 0 20.762 16.867 37.667 37.667 37.667h435.006a127.436 127.436 0 0 0 31.911 52.885c24.19 24.205 56.358 37.517 90.56 37.517 34.202 0 66.37-13.32 90.553-37.517a127.376 127.376 0 0 0 32.544-55.01 37.48 37.48 0 0 0 12.468 2.125h75.41a37.675 37.675 0 0 0 0-75.335h-75.41a37.55 37.55 0 0 0-12.468 2.117zM376.058 549.29a52.388 52.388 0 0 1-37.29 15.444 52.388 52.388 0 0 1-37.291-15.444A52.388 52.388 0 0 1 286.033 512c0-14.088 5.484-27.332 15.444-37.291a52.388 52.388 0 0 1 37.29-15.444c14.088 0 27.332 5.484 37.291 15.444A52.388 52.388 0 0 1 391.502 512c0 14.088-5.485 27.332-15.444 37.29zm346.54 293.806a52.388 52.388 0 0 1-37.29 15.443 52.388 52.388 0 0 1-37.291-15.443 52.388 52.388 0 0 1-15.444-37.291c0-14.088 5.484-27.332 15.444-37.29a52.388 52.388 0 0 1 37.29-15.444c14.088 0 27.332 5.484 37.291 15.443a52.388 52.388 0 0 1 15.444 37.29c0 14.088-5.485 27.332-15.444 37.292zm0-587.612a52.388 52.388 0 0 1-37.29 15.444 52.388 52.388 0 0 1-37.291-15.444 52.388 52.388 0 0 1-15.444-37.29c0-14.088 5.484-27.332 15.444-37.291a52.388 52.388 0 0 1 37.29-15.444c14.088 0 27.332 5.485 37.291 15.444a52.388 52.388 0 0 1 15.444 37.29c0 14.088-5.485 27.332-15.444 37.291z"/></svg>
